app/assets/images/shi.svg

<?xml version="1.0" encoding="UTF-8" standalone="no"?>
<svg width="95px" height="79px" viewBox="0 0 95 79" version="1.1" xmlns="http://www.w3.org/2000/svg" xmlns:xlink="http://www.w3.org/1999/xlink" xmlns:sketch="http://www.bohemiancoding.com/sketch/ns">
    <!-- Generator: Sketch 3.0 (7574) - http://www.bohemiancoding.com/sketch -->
    <title>shi.io</title>
    <description>Created with Sketch.</description>
    <defs></defs>
    <g id="Page-1" stroke="none" stroke-width="1" fill="none" fill-rule="evenodd" sketch:type="MSPage">
        <path d="M74.7116762,62.7168827 L72.7783215,63.0699301 L72.1629368,63.0699301 L72.1629368,62.4825175 L74.0650348,57.3636364 C74.0650348,55.6480101 73.4310085,54.7902098 72.1629368,54.7902098 L70.8762236,54.7902098 C66.4006767,59.0419793 64.4892739,62.6596587 65.1419578,65.6433566 L66.1209788,67.2097902 L70.8762236,68.8321678 C72.3122154,68.8321678 73.5616955,68.4591659 74.6246719,67.7131563 C75.9321867,69.4955277 77.7502878,70.5678226 80.0790208,70.9300699 L81.1419578,70.9300699 C86.5126141,70.1654973 89.5801824,69.1864862 90.344755,67.993007 L92.7503494,67.6293706 C93.6081626,66.4731877 93.6174865,65.6713309 92.7783215,65.2237762 L91.4916082,64.3286713 L90.9601396,58.7062937 L89.337762,55.9090909 L86.5125872,52.6643357 C84.0323883,50.6130434 81.7107332,50.762226 79.5475522,53.1118881 C84.0976915,58.2028227 86.3727271,61.5221368 86.3727271,63.0699301 C85.6454507,65.1771667 84.2468633,66.2307692 82.1769229,66.2307692 L81.1419578,66.2307692 L82.1769229,61.5034965 L82.1769229,57.8391608 C82.027738,57.1118845 81.1512899,56.4125908 79.5475522,55.7412587 C77.0185088,56.8502511 75.4065568,59.1754444 74.7116762,62.7168827 Z M39.8993931,62.9157834 C39.4547582,62.9667765 39.0297862,62.9995106 38.6244753,63.013986 L36.8622375,62.4545455 L38.0650348,51.965035 L38.0650348,50.2027972 L36.274825,48.4405594 L35.7153844,48.4405594 C33.4030185,48.4405594 29.7107478,52.1421541 24.6384613,59.5454545 C35.1373483,26.2772229 40.3867131,7.4149407 40.3867131,2.95804196 L40.3867131,2.37062937 C40.3867131,1.7925379 39.612828,1.2144551 38.0650348,0.636363636 C35.6221321,0.636363636 33.0860269,5.49412392 30.4566431,15.2097902 C30.4566431,16.3846213 30.8482476,16.972028 31.6314683,16.972028 L32.2188809,16.972028 L32.8062935,16.3846154 L18.2874282,63.3969416 C18.2779011,63.3904981 18.2683388,63.3840584 18.2587413,63.3776224 C16.5617631,64.9440638 14.5291494,66.249412 12.1608392,67.2937063 C7.68529231,65.2610621 5.44755245,62.9021113 5.44755245,60.2167832 C5.44755245,57.6433438 7.02329427,55.5454627 10.1748252,53.9230769 L10.7062937,53.9230769 L10.7062937,54.4265734 L9.64335664,57.5874126 L10.1748252,59.1538462 C12.4312467,59.1538462 14.0069885,56.8788106 14.9020979,52.3286713 L14.9020979,51.8251748 C14.752913,51.0978985 13.8764649,50.3986048 12.2727273,49.7272727 L11.7412587,49.7272727 C6.16547329,49.7272727 2.32401986,53.5687262 0.216783217,61.2517483 C0.216783217,65.0559631 2.44519916,67.9463771 6.9020979,69.9230769 C4.45919524,71.9743692 3.23776224,73.7272655 3.23776224,75.1818182 L3.23776224,75.6853147 C4.15151972,77.400941 5.54078322,78.2587413 7.40559441,78.2587413 C11.4708828,78.2587413 13.9323966,76.3566624 14.7902098,72.5524476 C14.7902098,71.8732702 15.2723044,71.0350827 16.2365011,70.037877 L16.2365011,70.037877 L15.8832166,71.1818182 C16.0696977,72.7482596 16.6477805,73.5314685 17.6174823,73.5314685 C20.563884,73.5314685 25.2351659,68.2727799 31.6314683,57.7552448 L32.2188809,57.7552448 L32.2188809,58.3706294 L31.6314683,60.6923077 L31.6314683,63.013986 C32.2282079,66.519831 33.775978,68.2727273 36.274825,68.2727273 C37.5195423,68.2727273 39.0196975,67.9019049 40.7753307,67.1602497 L40.8062935,67.2097902 L45.5615382,68.8321678 C48.4333475,68.8321678 50.5592003,67.3403413 51.9391606,64.3566434 L50.6804194,62.4825175 L47.4636361,63.0699301 L46.8482515,63.0699301 L46.8482515,62.4825175 L48.7503494,57.3636364 C48.7503494,55.6480101 48.1163231,54.7902098 46.8482515,54.7902098 L45.5615382,54.7902098 C42.3713403,57.8208978 40.4839655,60.5294092 39.8993931,62.9157834 L39.8993931,62.9157834 Z M8.4965035,72.8881119 C7.93706014,73.7272769 7.62937091,74.3053597 7.57342657,74.6223776 C7.51748224,74.9393955 7.76456601,74.9440575 8.31468531,74.6363636 C8.86480462,74.3286698 8.92541007,73.745925 8.4965035,72.8881119 Z M50.2048949,36.6083916 C51.4729665,38.1561849 52.1069928,39.6480115 52.1069928,41.0839161 C52.1069928,42.0536179 51.0440664,42.6876442 48.9181816,42.986014 L46.4006991,41.0839161 C46.4006991,38.1002182 47.6687517,36.6083916 50.2048949,36.6083916 Z M59.4636361,60.1608392 L61.3657341,61.5874126 L61.3657341,63.4895105 C61.3657341,65.1678406 60.1070054,66.902089 57.5895103,68.6923077 L55.2118879,68.6923077 C54.2608342,68.3752898 53.7853145,67.4242503 53.7853145,65.8391608 L53.7853145,65.3636364 C53.7853145,62.6037158 55.6780694,60.8694674 59.4636361,60.1608392 Z M75.5195802,36.6083916 C76.7876518,38.1561849 77.4216781,39.6480115 77.4216781,41.0839161 C77.4216781,42.0536179 76.3587517,42.6876442 74.2328669,42.986014 L71.7153844,41.0839161 C71.7153844,38.1002182 72.983437,36.6083916 75.5195802,36.6083916 Z" id="shi.io" fill="#DF2E1C" sketch:type="MSShapeGroup"></path>
    </g>
</svg>

<svg width="95" height="79" viewBox="0 0 95 79" xmlns="http://www.w3.org/2000/svg"><title>shi.io</title><g fill="none" fill-rule="evenodd"><path d="M74.712 62.717l-1.934.353h-.615v-.587l1.902-5.12c0-1.715-.634-2.573-1.902-2.573h-1.287c-4.475 4.252-6.387 7.87-5.734 10.853l.98 1.567 4.754 1.622c1.436 0 2.686-.373 3.75-1.12 1.306 1.784 3.124 2.856 5.453 3.218h1.062c5.37-.765 8.438-1.744 9.203-2.937l2.405-.364c.858-1.157.867-1.96.028-2.406l-1.286-.895-.532-5.624-1.622-2.797-2.825-3.246c-2.48-2.05-4.802-1.902-6.965.448 4.55 5.09 6.825 8.41 6.825 9.958-.728 2.107-2.126 3.16-4.196 3.16h-1.035l1.035-4.727V57.84c-.15-.728-1.026-1.427-2.63-2.1-2.528 1.11-4.14 3.435-4.835 6.977zm-34.813.2c-.445.05-.87.083-1.276.097l-1.762-.56 1.203-10.49v-1.76l-1.79-1.763h-.56c-2.312 0-6.004 3.702-11.077 11.105 10.5-33.268 15.75-52.13 15.75-56.587V2.37c0-.577-.775-1.156-2.323-1.734-2.443 0-4.98 4.858-7.608 14.574 0 1.175.39 1.762 1.174 1.762h.59l.586-.587-14.52 47.012-.027-.02c-1.698 1.567-3.73 2.872-6.1 3.917-4.475-2.033-6.712-4.392-6.712-7.077 0-2.574 1.575-4.672 4.727-6.294h.53v.504l-1.062 3.16.532 1.567c2.256 0 3.832-2.275 4.727-6.825v-.505c-.15-.727-1.026-1.426-2.63-2.098h-.53c-5.577 0-9.418 3.842-11.525 11.525 0 3.804 2.228 6.694 6.685 8.67-2.443 2.052-3.664 3.805-3.664 5.26v.503C4.152 77.4 5.54 78.26 7.406 78.26c4.065 0 6.526-1.903 7.384-5.708 0-.68.482-1.517 1.447-2.514l-.354 1.144c.187 1.566.765 2.35 1.734 2.35 2.947 0 7.618-5.26 14.014-15.777h.59v.616l-.59 2.322v2.322c.598 3.506 2.146 5.26 4.645 5.26 1.245 0 2.745-.372 4.5-1.114l.03.05 4.757 1.622c2.87 0 4.997-1.492 6.377-4.475l-1.26-1.874-3.216.587h-.616v-.587l1.902-5.12c0-1.715-.634-2.573-1.902-2.573h-1.286c-3.19 3.03-5.078 5.74-5.663 8.126zm-31.403 9.97c-.56.84-.868 1.418-.924 1.735-.056.317.192.322.742.014.55-.307.61-.89.182-1.748zm41.708-36.28c1.268 1.55 1.902 3.04 1.902 4.477 0 .97-1.063 1.604-3.19 1.902l-2.516-1.902c0-2.984 1.27-4.476 3.805-4.476zm9.26 23.554l1.9 1.427v1.903c0 1.678-1.258 3.412-3.775 5.202h-2.378c-.95-.317-1.427-1.268-1.427-2.853v-.476c0-2.76 1.893-4.495 5.68-5.203zM75.52 36.61c1.268 1.548 1.902 3.04 1.902 4.476 0 .97-1.063 1.604-3.19 1.902l-2.517-1.902c0-2.984 1.268-4.476 3.805-4.476z" fill="#DF2E1C"/></g></svg>
